BigSur-Originals/actions/16/y-zoom-in.svg

<svg xmlns="http://www.w3.org/2000/svg" viewBox="0 0 16 16">
  <defs id="defs3051">
    <style type="text/css" id="current-color-scheme">
      .ColorScheme-Text {
        color:#363636;
      }
      </style>
  </defs>
 <path style="fill:currentColor;fill-opacity:1;stroke:none" 
       d="M 2 2 L 2 3 L 2 4 L 3 4 L 3 3 L 4 3 L 4 2 L 3 2 L 2 2 z M 10.5 2 L 9.7929688 2.7070312 L 7.671875 4.828125 L 8.3789062 5.5351562 L 10 3.9140625 L 10 8.5703125 L 11 8.5703125 L 11 3.9140625 L 12.621094 5.5351562 L 13.328125 4.828125 L 10.5 2 z M 2 7 L 2 9 L 3 9 L 3 7 L 2 7 z M 2 10 L 2 14 L 6 14 L 6 10 L 2 10 z M 3 11 L 5 11 L 5 13 L 3 13 L 3 11 z M 13 12 L 13 13 L 12 13 L 12 14 L 13 14 L 14 14 L 14 12 L 13 12 z M 7 13 L 7 14 L 9 14 L 9 13 L 7 13 z "
     class="ColorScheme-Text"
     />
</svg>

<svg version="1.1" viewBox="0 0 16 16" xmlns="http://www.w3.org/2000/svg">
 <defs>
  <style id="current-color-scheme" type="text/css">.ColorScheme-Text {
        color:#363636;
      }</style>
 </defs>
 <path class="ColorScheme-Text" d="m3 2c-0.554 0-1 0.446-1 1v1h1v-1h1v-1h-1zm7.5 0-2.8281 2.8281 0.70703 0.70703 1.6211-1.6211v4.6562h1v-4.6562l1.6211 1.6211 0.70703-0.70703-2.8281-2.8281zm-8.5 5v2h1v-2h-1zm1 3c-0.554 0-1 0.446-1 1v2c0 0.554 0.446 1 1 1h2c0.554 0 1-0.446 1-1v-2c0-0.554-0.446-1-1-1h-2zm0 1h2v2h-2v-2zm10 1v1h-1v1h1c0.554 0 1-0.446 1-1v-1h-1zm-6 1v1h2v-1h-2z" fill="currentColor"/>
</svg>
